**kern	**silbe	**harmony	**phrase	**leadinstrument	**rhyme	**timestamp	**harte
*ICvox	*	*M4/4	*	*	*	*	*M4/4
*VRlead	*	*	*	*	*	*	*
*Hstimme	*	*	*	*	*	*	*
*D:	*	*D:	*	*	*	*	*D:
*M4/4	*	*	*	*	*	*	*
*clefF4	*	*	*	*	*	*	*
r;	.	1r;	.	r	.	0	N.C.
=1	=1	=1	=1	=1	=1	=1	=1
*>Letter>A	*>Letter>A	*>Letter>A	*>Letter>A	*>Letter>A	*>Letter>A	*>Letter>A	*>Letter>A
*>Label>Intro	*>Label>Intro	*>Label>Intro	*>Label>Intro	*>Label>Intro	*>Label>Intro	*>Label>Intro	*>Label>Intro
1r	.	1DM	newline	synthesizer	.	0.877	D:maj
=2	=2	=2	=2	=2	=2	=2	=2
1r	.	1DM	.	synthesizer	.	2.589	D:maj/b7
=3	=3	=3	=3	=3	=3	=3	=3
1r	.	1DM	.	synthesizer	.	4.301	D:maj/6
=4	=4	=4	=4	=4	=4	=4	=4
1r	.	1DM	.	synthesizer	.	6.013	D:maj/5
=5	=5	=5	=5	=5	=5	=5	=5
1r	.	1DM	.	synthesizer	.	7.725	D:maj
=6	=6	=6	=6	=6	=6	=6	=6
1r	.	1DM	.	synthesizer	.	9.436	D:maj/b7
=7	=7	=7	=7	=7	=7	=7	=7
1r	.	1DM	.	synthesizer	.	11.148	D:maj/6
=8	=8	=8	=8	=8	=8	=8	=8
1r	.	1DM	.	synthesizer	.	12.86	D:maj/5
=9	=9	=9	=9	=9	=9	=9	=9
*>Letter>B	*>Letter>B	*>Letter>B	*>Letter>B	*>Letter>B	*>Letter>B	*>Letter>B	*>Letter>B
*>Label>Verse	*>Label>Verse	*>Label>Verse	*>Label>Verse	*>Label>Verse	*>Label>Verse	*>Label>Verse	*>Label>Verse
4r	.	1DM	newline	voice	.	14.572	D:maj
8r	.	.	.	.	.	.	.
8D	I	.	.	.	.	.	.
8F#	walk	.	.	.	.	.	.
4G	a-	.	.	.	.	.	.
[8A	-long	.	.	.	.	.	.
=10	=10	=10	=10	=10	=10	=10	=10
8A]	_	1AM	.	voice	.	16.179	A:maj/3
4F#	the	.	.	.	.	.	.
[8A	ci	.	.	.	.	.	.
8A]	_	.	.	.	.	.	.
4B	ty	.	.	.	.	.	.
[8c	streets	.	.	.	A	.	.
=11	=11	=11	=11	=11	=11	=11	=11
8c]	_	1CM	.	voice	.	17.785	C:maj
4c	you	.	.	.	.	.	.
[8B	used	.	.	.	.	.	.
8B]	_	.	.	.	.	.	.
4A	to	.	.	.	.	.	.
[8G	walk	.	.	.	.	.	.
=12	=12	=12	=12	=12	=12	=12	=12
8G]	_	1GM	.	voice	.	19.392	G:maj/3
4A	a-	.	.	.	.	.	.
[8G	-long	.	.	.	.	.	.
8G]	_	.	.	.	.	.	.
4F#	with	.	.	.	.	.	.
[8E	me	.	.	.	A	.	.
=13	=13	=13	=13	=13	=13	=13	=13
4E]	_	1B-M	.	voice	.	20.999	B-:maj
4r	.	.	.	.	.	.	.
2r	.	.	.	.	.	.	.
=14	=14	=14	=14	=14	=14	=14	=14
4r	.	1DM	.	voice	.	22.606	D:maj
8r	.	.	.	.	.	.	.
8D	And	.	.	.	.	.	.
8F#	ev-	.	.	.	.	.	.
4G	-'ry	.	.	.	.	.	.
[8A	step	.	.	.	.	.	.
=15	=15	=15	=15	=15	=15	=15	=15
8A]	_	1AM	.	voice	.	24.213	A:maj/3
4F#	I	.	.	.	.	.	.
[8A	take	.	.	.	.	.	.
8A]	_	.	.	.	.	.	.
4B	re-	.	.	.	.	.	.
[8c	-minds	.	.	.	.	.	.
=16	=16	=16	=16	=16	=16	=16	=16
8c]	_	1CM	.	voice	.	25.82	C:maj
4c	me	.	.	.	A	.	.
[8B	of	.	.	.	.	.	.
8B]	_	.	.	.	.	.	.
4A	just	.	.	.	.	.	.
[8G	how	.	.	.	.	.	.
=17	=17	=17	=17	=17	=17	=17	=17
4G]	_	1GM	.	voice	.	27.426	G:maj/3
8r	.	.	.	.	.	.	.
8D	we	.	.	.	.	.	.
4G	used	.	.	.	.	.	.
8A	to	.	.	.	.	.	.
8Bq	_	.	.	.	.	.	.
[8c	be	.	.	.	A	.	.
=18	=18	=18	=18	=18	=18	=18	=18
8c]	_	1GM	.	voice	.	29.033	G:maj/3
8B	_	.	.	.	.	.	.
8r	.	.	.	.	.	.	.
8G	Oh,	.	.	.	.	.	.
4B	how	.	.	.	.	.	.
4c#	can	.	.	.	.	.	.
=19	=19	=19	=19	=19	=19	=19	=19
2d	I	1GM	newline	voice	.	30.64	G:maj/5
4r	.	.	.	.	.	.	.
8r	.	.	.	.	.	.	.
8~c#	for-	.	.	.	.	.	.
=20	=20	=20	=20	=20	=20	=20	=20
8dq	_	.	.	.	.	.	.
4e	-get	1DM	.	voice	.	32.226	D:maj
4d	you,	.	.	.	.	.	.
2A	girl	.	.	.	.	.	.
=21	=21	=21	=21	=21	=21	=21	=21
4r	.	1Em	.	voice	.	33.813	E:min
8r	.	.	.	.	.	.	.
8A	When	.	.	.	.	.	.
4d	there	.	.	.	.	.	.
4e	is	.	.	.	.	.	.
=22	=22	=22	=22	=22	=22	=22	=22
*>Letter>C	*>Letter>C	*>Letter>C	*>Letter>C	*>Letter>C	*>Letter>C	*>Letter>C	*>Letter>C
*>Label>Chorus	*>Label>Chorus	*>Label>Chorus	*>Label>Chorus	*>Label>Chorus	*>Label>Chorus	*>Label>Chorus	*>Label>Chorus
4f#	al-	1DM	newline	.	.	35.399	D:maj
4f#	-ways	.	.	.	.	.	.
4g	some-	.	.	.	.	.	.
8f#	-thing	.	.	.	.	.	.
[8e	there	.	.	.	.	.	.
=23	=23	=23	=23	=23	=23	=23	=23
8e]	_	1GM	.	.	.	37.014	G:maj/5
4f#	to	.	.	.	.	.	.
8g	re-	.	.	.	.	.	.
8eq	_	.	.	.	.	.	.
4f#	-mind	.	.	.	.	.	.
8e	me	.	.	.	A	.	.
[8d	_	.	.	.	.	.	.
=24	=24	=24	=24	=24	=24	=24	=24
4d]	_	1DM	.	.	.	38.629	D:maj
4r	.	.	.	.	.	.	.
2r	.	.	.	.	.	.	.
=25	=25	=25	=25	=25	=25	=25	=25
1r	.	1DM	.	.	.	40.244	D:maj
=26	=26	=26	=26	=26	=26	=26	=26
4f#	Al-	1DM	.	.	.	41.859	D:maj
4f#	-ways	.	.	.	.	.	.
4g	some-	.	.	.	.	.	.
8a	-thing	.	.	.	.	.	.
8f#q	_	.	.	.	.	.	.
[8e	there	.	.	.	.	.	.
=27	=27	=27	=27	=27	=27	=27	=27
4e]	_	1GM	.	.	.	43.473	G:maj/5
8d	to	.	.	.	.	.	.
8B	re-	.	.	.	.	.	.
8e#q	_	.	.	.	.	.	.
4f#	-mind	.	.	.	.	.	.
8e#q	_	.	.	.	.	.	.
[4f#	me	.	.	.	A	.	.
=28	=28	=28	=28	=28	=28	=28	=28
4.f#]	_	1DM	.	.	.	45.088	D:maj
8r	.	.	.	.	.	.	.
2r	.	.	.	.	.	.	.
=29	=29	=29	=29	=29	=29	=29	=29
1r	.	1DM	.	.	.	46.703	D:maj
=30	=30	=30	=30	=30	=30	=30	=30
*>Letter>B	*>Letter>B	*>Letter>B	*>Letter>B	*>Letter>B	*>Letter>B	*>Letter>B	*>Letter>B
*>Label>Verse	*>Label>Verse	*>Label>Verse	*>Label>Verse	*>Label>Verse	*>Label>Verse	*>Label>Verse	*>Label>Verse
4r	.	1DM	newline	.	.	48.318	D:maj
8r	.	.	.	.	.	.	.
8~D	As	.	.	.	.	.	.
8F#	sha-	.	.	.	.	.	.
4G	-dows	.	.	.	.	.	.
[8A	fall,	.	.	.	B	.	.
=31	=31	=31	=31	=31	=31	=31	=31
4A]	_	1AM	.	.	.	49.932	A:maj/3
8F#	I	.	.	.	.	.	.
[8A	pass	.	.	.	.	.	.
8A]	_	.	.	.	.	.	.
4B	a	.	.	.	.	.	.
[8c	small	.	.	.	B	.	.
=32	=32	=32	=32	=32	=32	=32	=32
8c]	_	1CM	.	.	.	51.545	C:maj
4c	ca-	.	.	.	.	.	.
[8B	-fe	.	.	.	.	.	.
8B]	_	.	.	.	.	.	.
8A	where	.	.	.	.	.	.
4r	.	.	.	.	.	.	.
=33	=33	=33	=33	=33	=33	=33	=33
4G	we	1GM	.	.	.	53.158	G:maj/3
4A	would	.	.	.	.	.	.
4G	dance	.	.	.	.	.	.
8F#	at	.	.	.	.	.	.
[8E	night	.	.	.	C	.	.
=34	=34	=34	=34	=34	=34	=34	=34
4E]	_	1B-M	.	.	.	54.771	B-:maj
4r	.	.	.	.	.	.	.
2r	.	.	.	.	.	.	.
=35	=35	=35	=35	=35	=35	=35	=35
4r	.	1DM	.	.	.	56.385	D:maj
8r	.	.	.	.	.	.	.
8~D	And	.	.	.	.	.	.
8F#	I	.	.	.	.	.	.
4G	can't	.	.	.	.	.	.
[8A	help	.	.	.	.	.	.
=36	=36	=36	=36	=36	=36	=36	=36
8A]	_	1AM	.	.	.	57.998	A:maj/3
8r	.	.	.	.	.	.	.
8F#	re-	.	.	.	.	.	.
[8A	-call	.	.	.	B	.	.
8A]	_	.	.	.	.	.	.
4B	ing	.	.	.	.	.	.
8r	.	.	.	.	.	.	.
=37	=37	=37	=37	=37	=37	=37	=37
8c	how	1CM	.	.	.	59.611	C:maj
4c	it	.	.	.	.	.	.
[8B	felt	.	.	.	.	.	.
4B]	_	.	.	.	.	.	.
8~D	_	.	.	.	.	.	.
8G	to	.	.	.	.	.	.
=38	=38	=38	=38	=38	=38	=38	=38
4D	kiss	1GM	.	.	.	61.224	G:maj/3
8r	.	.	.	.	.	.	.
8D	and	.	.	.	.	.	.
4G	hold	.	.	.	.	.	.
8A	you	.	.	.	.	.	.
8Bq	_	.	.	.	.	.	.
[8c	tight	.	.	.	C	.	.
=39	=39	=39	=39	=39	=39	=39	=39
8c]	_	1GM	.	.	.	62.838	G:maj/3
8B	_	.	.	.	.	.	.
8r	.	.	.	.	.	.	.
8G	Oh,	.	.	.	.	.	.
4B	how	.	.	.	.	.	.
4c#	can	.	.	.	.	.	.
=40	=40	=40	=40	=40	=40	=40	=40
2d	I	1GM	newline	.	.	64.451	G:maj/5
4r	.	.	.	.	.	.	.
8r	.	.	.	.	.	.	.
8~c#	for-	.	.	.	.	.	.
=41	=41	=41	=41	=41	=41	=41	=41
8dq	_	.	.	.	.	.	.
4e	-get	1DM	.	.	.	66.043	D:maj
4d	you,	.	.	.	.	.	.
2A	girl	.	.	.	.	.	.
=42	=42	=42	=42	=42	=42	=42	=42
4r	.	1Em	.	.	.	67.634	E:min
8r	.	.	.	.	.	.	.
8A	When	.	.	.	.	.	.
4d	there	.	.	.	.	.	.
4e	is	.	.	.	.	.	.
=43	=43	=43	=43	=43	=43	=43	=43
*>Letter>C	*>Letter>C	*>Letter>C	*>Letter>C	*>Letter>C	*>Letter>C	*>Letter>C	*>Letter>C
*>Label>Chorus	*>Label>Chorus	*>Label>Chorus	*>Label>Chorus	*>Label>Chorus	*>Label>Chorus	*>Label>Chorus	*>Label>Chorus
4f#	al-	1DM	newline	.	.	69.226	D:maj
4f#	-ways	.	.	.	.	.	.
4g	some-	.	.	.	.	.	.
8f#	-thing	.	.	.	.	.	.
[8e	there	.	.	.	.	.	.
=44	=44	=44	=44	=44	=44	=44	=44
8e]	_	1GM	.	.	.	70.831	G:maj/5
4f#	to	.	.	.	.	.	.
8g	re-	.	.	.	.	.	.
8eq	_	.	.	.	.	.	.
4f#	-mind	.	.	.	.	.	.
8e	me	.	.	.	A	.	.
[8d	_	.	.	.	.	.	.
=45	=45	=45	=45	=45	=45	=45	=45
4d]	_	1DM	.	.	.	72.435	D:maj
4r	.	.	.	.	.	.	.
2r	.	.	.	.	.	.	.
=46	=46	=46	=46	=46	=46	=46	=46
1r	.	1DM	.	.	.	74.04	D:maj
=47	=47	=47	=47	=47	=47	=47	=47
4f#	Al-	1DM	.	.	.	75.645	D:maj
4f#	-ways	.	.	.	.	.	.
4g	some-	.	.	.	.	.	.
8a	-thing	.	.	.	.	.	.
8f#q	_	.	.	.	.	.	.
[8e	there	.	.	.	.	.	.
=48	=48	=48	=48	=48	=48	=48	=48
4e]	_	1GM	.	.	.	77.249	G:maj/5
8d	to	.	.	.	.	.	.
8B	re-	.	.	.	.	.	.
8e#q	_	.	.	.	.	.	.
4f#	-mind	.	.	.	.	.	.
8e#q	_	.	.	.	.	.	.
[4f#	me	.	.	.	A	.	.
=49	=49	=49	=49	=49	=49	=49	=49
4.f#]	_	1DM	.	.	.	78.854	D:maj
8r	.	.	.	.	.	.	.
2r	.	.	.	.	.	.	.
=50	=50	=50	=50	=50	=50	=50	=50
4r	.	1DM	.	.	.	80.459	D:maj
8r	.	.	.	.	.	.	.
8f	I	.	.	.	.	.	.
4e	_	.	.	.	.	.	.
4d	was	.	.	.	.	.	.
=51	=51	=51	=51	=51	=51	=51	=51
*>Letter>D	*>Letter>D	*>Letter>D	*>Letter>D	*>Letter>D	*>Letter>D	*>Letter>D	*>Letter>D
*>Label>Bridge	*>Label>Bridge	*>Label>Bridge	*>Label>Bridge	*>Label>Bridge	*>Label>Bridge	*>Label>Bridge	*>Label>Bridge
2.c#	born	1F#m	newline	voice	.	82.063	F#:min
8c#	to	.	.	.	.	.	.
8d	_	.	.	.	.	.	.
=52	=52	=52	=52	=52	=52	=52	=52
4B	love	1Bm	.	voice	.	83.677	B:min
[4F#	her	.	.	.	.	.	.
2F#]	_	.	.	.	.	.	.
=53	=53	=53	=53	=53	=53	=53	=53
4r	.	1Bm	.	voice	.	85.291	B:min
8r	.	.	.	.	.	.	.
8F#	and	.	.	.	.	.	.
4B	I	.	.	.	.	.	.
4d	will	.	.	.	.	.	.
=54	=54	=54	=54	=54	=54	=54	=54
8e#q	_	.	.	.	.	.	.
[2f#	ne	1GM	.	voice	.	86.905	G:maj
8f#]	_	.	.	.	.	.	.
8g	ver	.	.	.	.	.	.
4f#	be	.	.	.	.	.	.
=55	=55	=55	=55	=55	=55	=55	=55
4e	free	1AM	.	voice	A	88.519	A:maj
8r	.	.	.	.	.	.	.
8A	you'll	.	.	.	.	.	.
8B	al-	.	.	.	.	.	.
8d	-ways	.	.	.	.	.	.
8d	be	.	.	.	.	.	.
8d	a	.	.	.	.	.	.
=56	=56	=56	=56	=56	=56	=56	=56
8dq	_	.	.	.	.	.	.
4.e	part	1DM	.	voice	.	90.133	D:maj
[8d	of	.	.	.	.	.	.
8d]	_	.	.	.	.	.	.
4.d	me	.	.	.	A	.	.
=57	=57	=57	=57	=57	=57	=57	=57
4r	.	1DM	.	voice	.	91.747	D:maj
8r	.	.	.	.	.	.	.
8D	Whoa,	.	.	.	.	.	.
8E	_	.	.	.	.	.	.
8F#	_	.	.	.	.	.	.
8E	whoa,	.	.	.	.	.	.
8D	_	.	.	.	.	.	.
=58	=58	=58	=58	=58	=58	=58	=58
8E	whoa	2.DM	.	voice	.	93.361	D:maj
[4.F#	_	.	.	.	.	.	.
4F#]	_	.	.	.	.	.	.
4r	.	4GM	.	voice	.	94.572	G:maj/5
=59	=59	=59	=59	=59	=59	=59	=59
1r	.	1DM	.	voice	.	94.975	D:maj
=60	=60	=60	=60	=60	=60	=60	=60
1r	.	1F#m	newline	synthesizer	.	96.589	F#:min
=61	=61	=61	=61	=61	=61	=61	=61
1r	.	1Bm	.	synthesizer	.	98.184	B:min
=62	=62	=62	=62	=62	=62	=62	=62
1r	.	1Bm	.	synthesizer	.	99.78	B:min
=63	=63	=63	=63	=63	=63	=63	=63
1r	.	1GM	.	synthesizer	.	101.375	G:maj
=64	=64	=64	=64	=64	=64	=64	=64
1r	.	1AM	.	synthesizer	.	102.97	A:maj
=65	=65	=65	=65	=65	=65	=65	=65
*>Letter>A	*>Letter>A	*>Letter>A	*>Letter>A	*>Letter>A	*>Letter>A	*>Letter>A	*>Letter>A
*>Label>Interlude	*>Label>Interlude	*>Label>Interlude	*>Label>Interlude	*>Label>Interlude	*>Label>Interlude	*>Label>Interlude	*>Label>Interlude
1r	.	1DM	newline	synthesizer	.	104.565	D:maj
=66	=66	=66	=66	=66	=66	=66	=66
1r	.	1DM	.	synthesizer	.	106.182	D:maj/b7
=67	=67	=67	=67	=67	=67	=67	=67
1r	.	1DM	.	synthesizer	.	107.8	D:maj/6
=68	=68	=68	=68	=68	=68	=68	=68
1r	.	1DM	.	synthesizer	.	109.417	D:maj/5
=69	=69	=69	=69	=69	=69	=69	=69
1r	.	1DM	.	synthesizer	.	111.034	D:maj
=70	=70	=70	=70	=70	=70	=70	=70
1r	.	1DM	.	synthesizer	.	112.651	D:maj/b7
=71	=71	=71	=71	=71	=71	=71	=71
1r	.	1DM	.	synthesizer	.	114.268	D:maj/6
=72	=72	=72	=72	=72	=72	=72	=72
1r	.	1DM	.	synthesizer	.	115.885	D:maj/5
=73	=73	=73	=73	=73	=73	=73	=73
*>Letter>B	*>Letter>B	*>Letter>B	*>Letter>B	*>Letter>B	*>Letter>B	*>Letter>B	*>Letter>B
*>Label>Verse	*>Label>Verse	*>Label>Verse	*>Label>Verse	*>Label>Verse	*>Label>Verse	*>Label>Verse	*>Label>Verse
4r	.	1DM	newline	voice	.	117.502	D:maj
8r	.	.	.	.	.	.	.
8D	If	.	.	.	.	.	.
8F#	you	.	.	.	.	.	.
4G	should	.	.	.	.	.	.
8~G	find	.	.	.	.	.	.
=74	=74	=74	=74	=74	=74	=74	=74
4A	_	1AM	.	voice	.	119.107	A:maj/3
8F#	you	.	.	.	.	.	.
[8A	miss	.	.	.	.	.	.
8A]	_	.	.	.	.	.	.
4B	the	.	.	.	.	.	.
8Bq	_	.	.	.	.	.	.
[8c	sweet	.	.	.	A	.	.
=75	=75	=75	=75	=75	=75	=75	=75
8c]	_	1CM	.	voice	.	120.711	C:maj
4c	and	.	.	.	.	.	.
[8B	ten	.	.	.	.	.	.
8B]	_	.	.	.	.	.	.
4A	der	.	.	.	.	.	.
[8G	love	.	.	.	.	.	.
=76	=76	=76	=76	=76	=76	=76	=76
8G]	_	1GM	.	voice	.	122.316	G:maj/3
4A	we	.	.	.	.	.	.
[8G	used	.	.	.	.	.	.
8G]	_	.	.	.	.	.	.
4F#	to	.	.	.	.	.	.
[8E	share	.	.	.	E	.	.
=77	=77	=77	=77	=77	=77	=77	=77
2E]	_	1B-M	.	voice	.	123.92	B-:maj
2r	.	.	.	.	.	.	.
=78	=78	=78	=78	=78	=78	=78	=78
4r	.	1DM	.	voice	.	125.525	D:maj
8r	.	.	.	.	.	.	.
8~D	just	.	.	.	.	.	.
8F#	go	.	.	.	.	.	.
4G	back	.	.	.	.	.	.
[8A	to	.	.	.	.	.	.
=79	=79	=79	=79	=79	=79	=79	=79
8A]	_	1AM	.	voice	.	127.129	A:maj/3
4F#	the	.	.	.	.	.	.
[8A	pla	.	.	.	.	.	.
8A]	_	.	.	.	.	.	.
4B	ces	.	.	.	.	.	.
8r	.	.	.	.	.	.	.
=80	=80	=80	=80	=80	=80	=80	=80
4c	where	1CM	.	voice	E	128.734	C:maj
8c	we	.	.	.	.	.	.
[8B	used	.	.	.	.	.	.
8B]	_	.	.	.	.	.	.
4A	to	.	.	.	.	.	.
[8G	go	.	.	.	.	.	.
=81	=81	=81	=81	=81	=81	=81	=81
4G]	_	1GM	.	voice	.	130.338	B:maj
8r	.	.	.	.	.	.	.
8D	and	.	.	.	.	.	.
4G	I'll	.	.	.	.	.	.
8A	be	.	.	.	.	.	.
8Bq	_	.	.	.	.	.	.
[8c	there	.	.	.	E	.	.
=82	=82	=82	=82	=82	=82	=82	=82
8c]	_	1GM	.	voice	.	131.943	B:maj
8B	_	.	.	.	.	.	.
8r	.	.	.	.	.	.	.
8G	Oh,	.	.	.	.	.	.
4B	how	.	.	.	.	.	.
4c#	can	.	.	.	.	.	.
=83	=83	=83	=83	=83	=83	=83	=83
2d	I	1GM	newline	voice	.	133.547	G:maj/5
4r	.	.	.	.	.	.	.
8r	.	.	.	.	.	.	.
8~c#	for-	.	.	.	.	.	.
=84	=84	=84	=84	=84	=84	=84	=84
8dq	_	.	.	.	.	.	.
4e	-get	1DM	.	voice	.	135.149	D:maj
4d	you,	.	.	.	.	.	.
2A	girl	.	.	.	.	.	.
=85	=85	=85	=85	=85	=85	=85	=85
4r	.	1Em	.	voice	.	136.75	E:min
8r	.	.	.	.	.	.	.
8A	When	.	.	.	.	.	.
4d	there	.	.	.	.	.	.
4e	is	.	.	.	.	.	.
=86	=86	=86	=86	=86	=86	=86	=86
*>Letter>C	*>Letter>C	*>Letter>C	*>Letter>C	*>Letter>C	*>Letter>C	*>Letter>C	*>Letter>C
*>Label>Chorus	*>Label>Chorus	*>Label>Chorus	*>Label>Chorus	*>Label>Chorus	*>Label>Chorus	*>Label>Chorus	*>Label>Chorus
4f#	al-	1DM	newline	.	.	138.351	D:maj
4f#	-ways	.	.	.	.	.	.
4g	some-	.	.	.	.	.	.
8f#	-thing	.	.	.	.	.	.
[8e	there	.	.	.	.	.	.
=87	=87	=87	=87	=87	=87	=87	=87
8e]	_	1GM	.	.	.	139.958	G:maj/5
4f#	to	.	.	.	.	.	.
8g	re-	.	.	.	.	.	.
8eq	_	.	.	.	.	.	.
4f#	-mind	.	.	.	.	.	.
8e	me	.	.	.	A	.	.
[8d	_	.	.	.	.	.	.
=88	=88	=88	=88	=88	=88	=88	=88
4d]	_	1DM	.	.	.	141.566	D:maj
4r	.	.	.	.	.	.	.
2r	.	.	.	.	.	.	.
=89	=89	=89	=89	=89	=89	=89	=89
1r	.	1DM	.	.	.	143.173	D:maj
=90	=90	=90	=90	=90	=90	=90	=90
4f#	Al-	1DM	.	.	.	144.78	D:maj
4f#	-ways	.	.	.	.	.	.
4g	some-	.	.	.	.	.	.
8a	-thing	.	.	.	.	.	.
8f#q	_	.	.	.	.	.	.
[8e	there	.	.	.	.	.	.
=91	=91	=91	=91	=91	=91	=91	=91
4e]	_	1GM	.	.	.	146.387	G:maj/5
8d	to	.	.	.	.	.	.
8B	re-	.	.	.	.	.	.
8e#q	_	.	.	.	.	.	.
4f#	-mind	.	.	.	.	.	.
8e#q	_	.	.	.	.	.	.
[4f#	me	.	.	.	A	.	.
=92	=92	=92	=92	=92	=92	=92	=92
2f#]	_	1DM	.	.	.	147.994	D:maj
2r	.	.	.	.	.	.	.
=93	=93	=93	=93	=93	=93	=93	=93
4r	.	1DM	.	.	.	149.602	D:maj
8r	.	.	.	.	.	.	.
8f	I	.	.	.	.	.	.
4e	_	.	.	.	.	.	.
4d	was	.	.	.	.	.	.
=94	=94	=94	=94	=94	=94	=94	=94
*>Letter>D	*>Letter>D	*>Letter>D	*>Letter>D	*>Letter>D	*>Letter>D	*>Letter>D	*>Letter>D
*>Label>Bridge	*>Label>Bridge	*>Label>Bridge	*>Label>Bridge	*>Label>Bridge	*>Label>Bridge	*>Label>Bridge	*>Label>Bridge
2.c#	born	1F#m	newline	.	.	151.209	F#:min
8c#	to	.	.	.	.	.	.
8d	_	.	.	.	.	.	.
=95	=95	=95	=95	=95	=95	=95	=95
4B	love	1Bm	.	.	.	152.827	B:min
[4F#	her	.	.	.	.	.	.
2F#]	_	.	.	.	.	.	.
=96	=96	=96	=96	=96	=96	=96	=96
4r	.	1Bm	.	.	.	154.444	B:min
8r	.	.	.	.	.	.	.
8F#	And	.	.	.	.	.	.
4B	I	.	.	.	.	.	.
4d	will	.	.	.	.	.	.
=97	=97	=97	=97	=97	=97	=97	=97
8e#q	_	.	.	.	.	.	.
[2f#	ne	1GM	.	.	.	156.062	G:maj
8f#]	_	.	.	.	.	.	.
8g	ver	.	.	.	.	.	.
4f#	be	.	.	.	.	.	.
=98	=98	=98	=98	=98	=98	=98	=98
4e	free	1AM	.	.	A	157.68	A:maj
8r	.	.	.	.	.	.	.
8A	you'll	.	.	.	.	.	.
8B	al-	.	.	.	.	.	.
8d	-ways	.	.	.	.	.	.
8d	be	.	.	.	.	.	.
8d	a	.	.	.	.	.	.
=99	=99	=99	=99	=99	=99	=99	=99
8dq	_	.	.	.	.	.	.
4.e	part	1DM	.	.	.	159.298	D:maj
[8d	of	.	.	.	.	.	.
8d]	_	.	.	.	.	.	.
4.d	me	.	.	.	A	.	.
=100	=100	=100	=100	=100	=100	=100	=100
4r	.	1DM	.	.	.	160.916	D:maj
8r	.	.	.	.	.	.	.
8A	Cuz	.	.	.	.	.	.
4d	there	.	.	.	.	.	.
4e	is	.	.	.	.	.	.
=101	=101	=101	=101	=101	=101	=101	=101
*>Letter>C	*>Letter>C	*>Letter>C	*>Letter>C	*>Letter>C	*>Letter>C	*>Letter>C	*>Letter>C
*>Label>Outro	*>Label>Outro	*>Label>Outro	*>Label>Outro	*>Label>Outro	*>Label>Outro	*>Label>Outro	*>Label>Outro
4f#	al-	1DM	newline	fadeout voice	.	162.533	D:maj
4f#	-ways	.	.	.	.	.	.
4g	some-	.	.	.	.	.	.
8f#	-thing	.	.	.	.	.	.
[8e	there	.	.	.	.	.	.
=102	=102	=102	=102	=102	=102	=102	=102
8e]	_	1GM	.	fadeout voice	.	164.099	G:maj/5
4f#	to	.	.	.	.	.	.
8g	re-	.	.	.	.	.	.
8eq	_	.	.	.	.	.	.
4f#	-mind	.	.	.	.	.	.
8e	me	.	.	.	A	.	.
[8d	_	.	.	.	.	.	.
=103	=103	=103	=103	=103	=103	=103	=103
4d]	_	1DM	.	fadeout voice	.	165.665	D:maj
4r	.	.	.	.	.	.	.
2r	.	.	.	.	.	.	.
=104	=104	=104	=104	=104	=104	=104	=104
1r	.	1DM	.	fadeout voice	.	167.231	D:maj
=105	=105	=105	=105	=105	=105	=105	=105
4f#	Al-	1DM	.	fadeout voice	.	168.796	D:maj
4f#	-ways	.	.	.	.	.	.
4g	some-	.	.	.	.	.	.
8f#	-thing	.	.	.	.	.	.
[8e	there	.	.	.	.	.	.
=106	=106	=106	=106	=106	=106	=106	=106
8e]	_	1GM	.	fadeout voice	.	170.362	G:maj/5
4f#	to	.	.	.	.	.	.
8g	re-	.	.	.	.	.	.
8eq	_	.	.	.	.	.	.
4f#	-mind	.	.	.	.	.	.
8e	me	.	.	.	A	.	.
[8d	_	.	.	.	.	.	.
=107	=107	=107	=107	=107	=107	=107	=107
4d]	_	1DM	.	fadeout voice	.	171.928	D:maj
4r	.	.	.	.	.	.	.
2r	.	.	.	.	.	.	.
=108	=108	=108	=108	=108	=108	=108	=108
1r	.	1DM	.	fadeout voice	.	173.494	D:maj
=109	=109	=109	=109	=109	=109	=109	=109
4f#	Al-	1DM	.	fadeout voice	.	175.059	D:maj
4f#	-ways	.	.	.	.	.	.
4g	some-	.	.	.	.	.	.
8a	-thing	.	.	.	.	.	.
8f#q	_	.	.	.	.	.	.
[8e	there	.	.	.	.	.	.
=110	=110	=110	=110	=110	=110	=110	=110
4e]	_	1GM	.	fadeout voice	.	176.625	G:maj/5
8d	_	.	.	.	.	.	.
8B	re-	.	.	.	.	.	.
8e#q	_	.	.	.	.	.	.
4f#	-mind	.	.	.	.	.	.
8e#q	_	.	.	.	.	.	.
[4f#	me	.	.	.	A	.	.
=111	=111	=111	=111	=111	=111	=111	=111
2f#]	_	1DM	.	fadeout voice	.	178.191	D:maj
2r	.	.	.	.	.	.	.
=112	=112	=112	=112	=112	=112	=112	=112
1r	.	1DM	.	fadeout voice	.	179.757	D:maj
=113	=113	=113	=113	=113	=113	=113	=113
4f#	Al-	1DM	.	fadeout voice	.	181.322	D:maj
4f#	-ways	.	.	.	.	.	.
4g	some-	.	.	.	.	.	.
8a	-thing	.	.	.	.	.	.
8f#q	_	.	.	.	.	.	.
[8e	there	.	.	.	.	.	.
=114	=114	=114	=114	=114	=114	=114	=114
4e]	_	1GM	.	fadeout voice	.	182.888	G:maj/5
8d	_	.	.	.	.	.	.
8B	re-	.	.	.	.	.	.
8e#q	_	.	.	.	.	.	.
4f#	-mind	.	.	.	.	.	.
8e#q	_	.	.	.	.	.	.
[4f#	me	.	.	.	A	.	.
=115	=115	=115	=115	=115	=115	=115	=115
2f#]	_	1DM	.	fadeout voice	.	184.454	D:maj
2r	.	.	.	.	.	.	.
=116	=116	=116	=116	=116	=116	=116	=116
1r	.	1DM	.	fadeout voice	.	186.02	D:maj
=117	=117	=117	=117	=117	=117	=117	=117
4f#	Al-	1DM	.	fadeout voice	.	187.585	D:maj
4f#	-ways	.	.	.	.	.	.
4g	some-	.	.	.	.	.	.
8f#	-thing	.	.	.	.	.	.
[8e	there	.	.	.	.	.	.
=118	=118	=118	=118	=118	=118	=118	=118
8e]	_	1GM	.	fadeout voice	.	189.151	G:maj/5
4f#	to	.	.	.	.	.	.
8g	re-	.	.	.	.	.	.
8eq	_	.	.	.	.	.	.
4f#	-mind	.	.	.	.	.	.
8e	me	.	.	.	A	.	.
[8d	_	.	.	.	.	.	.
=119	=119	=119	=119	=119	=119	=119	=119
4d]	_	1DM	.	fadeout voice	.	190.717	D:maj
4r	.	.	.	.	.	.	.
2r	.	.	.	.	.	.	.
=120	=120	=120	=120	=120	=120	=120	=120
1r	.	1DM	.	fadeout voice	.	192.283	D:maj
=121	=121	=121	=121	=121	=121	=121	=121
4f#	Al-	1DM	.	fadeout voice	.	193.848	D:maj
4f#	-ways	.	.	.	.	.	.
4g	some-	.	.	.	.	.	.
8a	-thing	.	.	.	.	.	.
8f#q	_	.	.	.	.	.	.
[8e	there	.	.	.	.	.	.
=122	=122	=122	=122	=122	=122	=122	=122
4e]	_	1GM	.	fadeout voice	.	195.414	G:maj/5
8d	_	.	.	.	.	.	.
8B	re-	.	.	.	.	.	.
8e#q	_	.	.	.	.	.	.
4f#	-mind	.	.	.	.	.	.
8e#q	_	.	.	.	.	.	.
[4f#	me	.	.	.	A	.	.
=123	=123	=123	=123	=123	=123	=123	=123
2f#]	_	1DM	.	fadeout voice	.	196.98	D:maj
2r	.	.	.	.	.	.	.
=124	=124	=124	=124	=124	=124	=124	=124
1r	.	1DM	.	fadeout voice	.	198.546	D:maj
=125	=125	=125	=125	=125	=125	=125	=125
4f#	Al-	1DM	.	fadeout voice	.	200.111	D:maj
4f#	-ways	.	.	.	.	.	.
4g	some-	.	.	.	.	.	.
8f#	-thing	.	.	.	.	.	.
[8e	there	.	.	.	.	.	.
=126	=126	=126	=126	=126	=126	=126	=126
8e]	_	1GM	.	fadeout voice	.	201.677	G:maj/5
4f#	to	.	.	.	.	.	.
8g	re-	.	.	.	.	.	.
8eq	_	.	.	.	.	.	.
4f#	-mind	.	.	.	.	.	.
8e	me	.	.	.	A	.	.
[8d	_	.	.	.	.	.	.
=127	=127	=127	=127	=127	=127	=127	=127
4d]	_	1DM	.	fadeout voice	.	203.243	D:maj
4r	.	.	.	.	.	.	.
2r	.	.	.	.	.	.	.
=128	=128	=128	=128	=128	=128	=128	=128
1r	.	1DM	.	fadeout voice	.	204.809	D:maj
=129	=129	=129	=129	=129	=129	=129	=129
4f#	Al-	1DM	.	fadeout voice	.	206.374	D:maj
4f#	-ways	.	.	.	.	.	.
4g	some-	.	.	.	.	.	.
8a	-thing	.	.	.	.	.	.
8f#q	_	.	.	.	.	.	.
[8e	there	.	.	.	.	.	.
=130	=130	=130	=130	=130	=130	=130	=130
4e]	_	1GM	.	fadeout voice	.	207.94	G:maj/5
8d	_	.	.	.	.	.	.
8B	re-	.	.	.	.	.	.
8e#q	_	.	.	.	.	.	.
4f#	-mind	.	.	.	.	.	.
8e#q	_	.	.	.	.	.	.
[4f#	me	.	.	.	A	.	.
=131	=131	=131	=131	=131	=131	=131	=131
2f#]	_	1DM	.	fadeout voice	.	209.506	D:maj
2r	.	.	.	.	.	.	.
=132	=132	=132	=132	=132	=132	=132	=132
1r	.	1DM	.	fadeout voice	.	211.072	D:maj
=133	=133	=133	=133	=133	=133	=133	=133
4f#	Al-	1DM	.	fadeout voice	.	212.637	D:maj
4f#	-ways	.	.	.	.	.	.
4g	some-	.	.	.	.	.	.
8f#	-thing	.	.	.	.	.	.
[8e	there	.	.	.	.	.	.
=134	=134	=134	=134	=134	=134	=134	=134
8e]	_	1GM	.	fadeout voice	.	214.203	G:maj/5
4f#	to	.	.	.	.	.	.
8g	re-	.	.	.	.	.	.
8eq	_	.	.	.	.	.	.
4f#	-mind	.	.	.	.	.	.
8e	me	.	.	.	A	.	.
[8d	_	.	.	.	.	.	.
=135	=135	=135	=135	=135	=135	=135	=135
4d]	_	1DM	.	fadeout voice	.	215.769	D:maj
4r	.	.	.	.	.	.	.
2r	.	.	.	.	.	.	.
=136	=136	=136	=136	=136	=136	=136	=136
1r	.	1DM	.	fadeout voice	.	217.335	D:maj
r;	.	1r;	.	r	.	218.9	N.C.
r;	.	1r;	.	r	.	220.865	N.C.
*-	*-	*-	*-	*-	*-	*-	*-
!!!BillboardChartDate: 1983/03/19
!!!BillboardPeak: 8
!!!BillboardWeeksOnChart: 22
!!!COC: Naked Eyes
!!!ENC: Nathaniel Condit-Schultz
!!!EST: Awating manual error checking and editing.
!!!OTL: Always Something There To Remind Me
!!!RDF**chordsym: original McGill chord annotation + (implied pitch class set, with bass pitch in first position)
!!!RDF**harmony: **recip + pitch class of root + harmonic quality
!!!RDF**leadinstrument: original McGill primary instrumentation annotation
!!!RDF**phrase: newline = linebreak in original McGill transcription
!!!RDF**timestamp: McGill audio timestamp in seconds
!!!RDT: 2017/01/12/
!!!SampleActualRank: 79
!!!SampleID#: 0181
!!!SampleTargetRank: 80
